X:16059
T:Strike the Gay Harp
R:jig
D:Sean Keane: Jig It in Style
Z:id:hn-jig-189
M:6/8
K:D
d2B cAA|dAF FED|d2B cBA|dAF EFA|def Bcd|ABA F2E|DED DEF|AFE EFA:|
~d3 fdf|aba afe|de/f/g afd|bge edB|~d3 afa|bgb a2g|fed dfe|dAF EFA:|
def dfe|dAF DFA|def dfe|dAF EFA|def Bcd|ABA F2E|DED DEF|AFE EFA:|
